X: 549
T: Eighth Of January
B: jims roots
M:4/4
L:1/8
Q: 1/4=100
K:Dmaj
V:1 
%R: reel
|:de | "D"fefg fedf | "G"efed B2 cd | "A"edef edBc | "D"dBAF D2:||
|:DE | "D"[F2A2][A2A2] [A3A3] F | ABAF EDDE | FAAF AAAB | "A"AFEF "D"D2:|
|:de | "D"[A2f2] [A2a2] [A3a3] f | [Aa][Ab][Aa][Af] [Ae][Dd][Dd]e | f[A2a2]f[A2a2] ab | "A"[Aa]fec"D"[F2d2]:|
% abcbook-tune_id 6298c25d951b90ada6c556c9


% abcbook-boost 0
% abcbook-tablature 
% abcbook-transpose 
% abcbook-lastupdated 1654178397852
% abcbook-soundfonts 
% abcbook-repeats 1
% The Whistler
% <a href="http://thesession.org/tunes/1306#setting1306" rel="nofollow">http://thesession.org/tunes/1306#setting1306</a>

